src/assets/images/toolbox/bootstrap.svg

<svg
  width="40"
  height="32"
  viewBox="0 0 40 32"
  fill="transparent"
  xmlns="http://www.w3.org/2000/svg">
  <path
    fill="#7E13F8"
    d="M8.30813 0C6.02578 0 4.33687 2.00616 4.4125 4.18179C4.48516 6.27189 4.39078 8.97915 3.71219 11.1868C3.03156 13.4009 1.88031 14.8034 0 14.9835V17.0165C1.88031 17.1966 3.03156 18.5991 3.71219 20.8134C4.39078 23.021 4.48516 25.7279 4.4125 27.8182C4.33687 29.9935 6.02578 32 8.30844 32H31.6948C33.9773 32 35.6658 29.9938 35.5902 27.8182C35.5177 25.7281 35.6119 23.021 36.2905 20.8134C36.9716 18.5993 38.1197 17.1965 40 17.0165V14.9835C38.1197 14.8034 36.9716 13.4009 36.2906 11.1868C35.6119 8.97946 35.5177 6.27205 35.5902 4.18179C35.6658 2.00647 33.9773 0 31.6948 0H8.30813ZM27.1187 19.698C27.1187 22.6938 24.8938 24.5106 21.2013 24.5106H14.9153C14.7355 24.5106 14.5631 24.4388 14.436 24.3111C14.3089 24.1834 14.2375 24.0103 14.2375 23.8297V8.17025C14.2375 8.08083 14.255 7.99228 14.2891 7.90965C14.3231 7.82703 14.3731 7.75195 14.436 7.68871C14.499 7.62547 14.5737 7.57531 14.656 7.54108C14.7383 7.50686 14.8264 7.48924 14.9155 7.48924H21.1653C24.2442 7.48924 26.2648 9.16431 26.2648 11.7358C26.2648 13.5408 24.9055 15.1567 23.1737 15.4397V15.534C25.5314 15.7937 27.1187 17.4333 27.1187 19.698ZM20.5156 9.64761H16.9317V14.7317H19.9505C22.2839 14.7317 23.5708 13.788 23.5708 12.1011C23.5708 10.5205 22.4641 9.64761 20.5156 9.64761ZM16.9317 16.749V22.3516H20.6477C23.077 22.3516 24.3642 21.3726 24.3642 19.5326C24.3642 17.6923 23.0413 16.7486 20.4914 16.7486L16.9317 16.749Z"
  />
</svg>

<svg xmlns="http://www.w3.org/2000/svg" width="40" height="32" fill="transparent" xmlns:v="https://vecta.io/nano">
  <path fill="#7e13f8"
    d="M8.308 0C6.026 0 4.337 2.006 4.413 4.182c.073 2.09-.022 4.797-.7 7.005C3.032 13.401 1.88 14.803 0 14.984v2.033c1.88.18 3.032 1.583 3.712 3.797.679 2.208.773 4.915.7 7.005C4.337 29.994 6.026 32 8.308 32h23.386c2.282 0 3.971-2.006 3.895-4.182-.073-2.09.022-4.797.7-7.005.681-2.214 1.829-3.617 3.709-3.797v-2.033c-1.88-.18-3.028-1.583-3.709-3.797-.679-2.207-.773-4.915-.7-7.005C35.666 2.006 33.977 0 31.695 0H8.308zm18.811 19.698c0 2.996-2.225 4.813-5.917 4.813h-6.286c-.18 0-.352-.072-.479-.2a.68.68 0 0 1-.198-.481V8.17c0-.089.018-.178.052-.261a.68.68 0 0 1 .367-.369c.082-.034.17-.052.259-.052h6.25c3.079 0 5.1 1.675 5.1 4.247 0 1.805-1.359 3.421-3.091 3.704v.094c2.358.26 3.945 1.899 3.945 4.164zm-6.603-10.05h-3.584v5.084h3.019c2.333 0 3.62-.944 3.62-2.631 0-1.581-1.107-2.453-3.055-2.453zm-3.584 7.101v5.603h3.716c2.429 0 3.717-.979 3.717-2.819s-1.323-2.784-3.873-2.784h-3.56z" />
</svg>
